X: 135
T:Old Man Dillon
R:jig
M:6/8
K:G
|:G|EAA ABd|edB c2A|BGG DGG|Bdc BAG|EAA ABd|edB g2f|edc Bcd|eAA A2:|
|g|gef g2g|gef gdc|BGG DGG|BdB BAG|gef g2g|gef gfe|edB Bcd|eAA A2g|
gef g2g|gef gdc|BGG DGG|BdB BAG|EAA ABd|edB g2f|edB Bcd|eAA A2|]
